X:42
T:Col. Garden's Birth day
C:Robert Petrie
S:Petrie's Second Collection of Strathspey Reels and Country Dances &c.
Z:Steve Wyrick <sjwyrick'at'gmail'dot'com>, 6/11/04
N:Petrie's Second Collection, page 15
L:1/8
M:C
R:Strathspey
K:G
B|G>AB<G c>AB<G|c<AB<G E<AF<D|G>AB<G c<AB<G|d>Bc<A G2G:|
B|d>eg<d e<gd<B|c<aB<g A>GF<D|d>eg<d e<gd<B|c<Ad>B G2GB|
  d<eg<d e<gd<B|c<aB<g A>GF<D|d<gb<g d<gd<B|c<Ad>B G2G|]
